packages/web-icons/svgs/android.svg

<svg viewBox="0 0 42 48" xmlns="http://www.w3.org/2000/svg" class="ridi_icon"><path d="M3.3 15.7C1.7 15.7.4 17 .4 18.6V30c0 1.6 1.3 2.9 2.9 2.9 1.6 0 2.9-1.3 2.9-2.9V18.6c0-1.6-1.3-2.9-2.9-2.9zm5 20.9c0 1.2 1 2.2 2.2 2.2H13v6.3c0 1.6 1.3 2.9 2.9 2.9 1.6 0 2.9-1.3 2.9-2.9v-6.3h4.4v6.3c0 1.6 1.3 2.9 2.9 2.9 1.6 0 2.9-1.3 2.9-2.9v-6.3h2.5c1.2 0 2.2-1 2.2-2.2V15.8H8.3v20.8zm30.4-20.9c-1.6 0-2.9 1.3-2.9 2.9V30c0 1.6 1.3 2.9 2.9 2.9 1.6 0 2.9-1.3 2.9-2.9V18.6c0-1.6-1.3-2.9-2.9-2.9zm-11-10.5l2.4-3.5c.3-.5.2-1.1-.3-1.5-.5-.3-1.1-.2-1.5.3l-2.6 3.9c-1.5-.5-3.1-.8-4.7-.8-1.7 0-3.3.3-4.7.8L13.6.5c-.3-.5-.9-.6-1.4-.3-.5.3-.6 1-.3 1.5l2.4 3.5c-3.4 1.8-5.7 4.9-6 8.5h25.4c-.3-3.6-2.6-6.7-6-8.5zm-12.1 5c-.8 0-1.4-.6-1.4-1.4 0-.8.6-1.4 1.4-1.4.8 0 1.4.6 1.4 1.4 0 .8-.6 1.4-1.4 1.4zm10.9 0c-.8 0-1.4-.6-1.4-1.4 0-.8.6-1.4 1.4-1.4.8 0 1.4.6 1.4 1.4 0 .8-.6 1.4-1.4 1.4z"/></svg>

<?xml version="1.0" encoding="UTF-8"?>
<svg width="42px" height="48px" viewBox="0 0 42 48" version="1.1" xmlns="http://www.w3.org/2000/svg">
  <!-- Generator: Sketch 41.2 (35397) - http://www.bohemiancoding.com/sketch -->
  <title>android</title>
  <desc>Created with Sketch.</desc>
  <defs></defs>
  <g id="Page-1" stroke="none" stroke-width="1" fill="none" fill-rule="evenodd">
    <g id="android" fill="#000000">
      <g id="레이어_1">
        <path d="M3.3,15.7 C1.7,15.7 0.4,17 0.4,18.6 L0.4,30 C0.4,31.6 1.7,32.9 3.3,32.9 C4.9,32.9 6.2,31.6 6.2,30 L6.2,18.6 C6.2,17 4.9,15.7 3.3,15.7 L3.3,15.7 Z M8.3,36.6 C8.3,37.8 9.3,38.8 10.5,38.8 L13,38.8 L13,45.1 C13,46.7 14.3,48 15.9,48 C17.5,48 18.8,46.7 18.8,45.1 L18.8,38.8 L23.2,38.8 L23.2,45.1 C23.2,46.7 24.5,48 26.1,48 C27.7,48 29,46.7 29,45.1 L29,38.8 L31.5,38.8 C32.7,38.8 33.7,37.8 33.7,36.6 L33.7,15.8 L8.3,15.8 L8.3,36.6 Z M38.7,15.7 C37.1,15.7 35.8,17 35.8,18.6 L35.8,30 C35.8,31.6 37.1,32.9 38.7,32.9 C40.3,32.9 41.6,31.6 41.6,30 L41.6,18.6 C41.6,17 40.3,15.7 38.7,15.7 Z M27.7,5.2 L30.1,1.7 C30.4,1.2 30.3,0.6 29.8,0.2 C29.3,-0.1 28.7,-2.22044605e-16 28.3,0.5 L25.7,4.4 C24.2,3.9 22.6,3.6 21,3.6 C19.3,3.6 17.7,3.9 16.3,4.4 L13.6,0.5 C13.3,-2.22044605e-16 12.7,-0.1 12.2,0.2 C11.7,0.5 11.6,1.2 11.9,1.7 L14.3,5.2 C10.9,7 8.6,10.1 8.3,13.7 L33.7,13.7 C33.4,10.1 31.1,7 27.7,5.2 L27.7,5.2 Z M15.6,10.2 C14.8,10.2 14.2,9.6 14.2,8.8 C14.2,8 14.8,7.4 15.6,7.4 C16.4,7.4 17,8 17,8.8 C17,9.6 16.4,10.2 15.6,10.2 Z M26.5,10.2 C25.7,10.2 25.1,9.6 25.1,8.8 C25.1,8 25.7,7.4 26.5,7.4 C27.3,7.4 27.9,8 27.9,8.8 C27.9,9.6 27.3,10.2 26.5,10.2 Z" id="Shape"></path>
      </g>
    </g>
  </g>
</svg>
